blockchains/ethereum/assets/0x196f4727526eA7FB1e17b2071B3d8eAA38486988/logo.svg

<svg fill="none" height="250" viewBox="0 0 250 250" width="250" xmlns="http://www.w3.org/2000/svg" xmlns:xlink="http://www.w3.org/1999/xlink"><clipPath id="a"><path d="m0 0h250v250h-250z"/></clipPath><g clip-path="url(#a)"><path d="m111.61 249.717c-56.1997-7.1-98.9996-46.7-110.04965-101.85-2.099998-10.5-2.099998-35.4 0-45.9 10.35005-51.5998 48.80005-90.0998 100.44965-100.39981 10.5-2.100002 35.4-2.100002 45.9 0 51.65 10.30001 90.15 48.80001 100.45 100.39981 2.1 10.5 2.1 35.4 0 45.9-10.3 51.4-49 90.25-100 100.3-6.85 1.35-30.4 2.35-36.75 1.55z" fill="#000"/><path d="m111.61 249.698c-56.1501-7.05-99.0001-46.7-110.05014-101.85-2.099997-10.5-2.099997-35.4 0-45.9 10.35004-51.6003 48.80004-90.1003 100.45014-100.40034 10.5-2.100004 35.4-2.100004 45.9 0 51.65 10.30004 90.15 48.80004 100.45 100.40034 2.1 10.5 2.1 35.4 0 45.9-10.3 51.4-49 90.25-100 100.3-6.85 1.35-30.4 2.35-36.75 1.55zm5.65-93.25.25-18.15h8.15 8.15l7.9 18.4 7.9 18.4h10.1c5.55 0 10.35-.2 10.6-.45s-2.95-8.05-7.05-17.35c-4.15-9.3-7.7-17.65-7.9-18.6-.3-1.35.2-2 2.2-2.8 3.4-1.4 7.95-6.55 9.4-10.6.8-2.3 1.15-7.75 1.15-18.7 0-14.6003-.1-15.7003-2-19.4503-1.1-2.2-3.5-5.3-5.35-6.85-6.1-5.2-8.05-5.5-37.45-5.25l-26.3002.2-.25 8.0999-.25 8.1001-9.3499.25-9.35.25v8.7503 8.75l9.8.25 9.8.25v4.55 4.55l-9.8.25-9.8.25v8.75 8.75l9.8.25 9.8.25v18.8 18.8l9.8001.1h9.8zm.2-49.9v-12.5503h13.75c13.75 0 13.75 0 15.45 2.2 1.5 1.9 1.75 3.3499 1.75 10.3503 0 6.95-.25 8.45-1.75 10.35-1.75 2.2-1.75 2.2-15.45 2.2h-13.75z" fill="#fff"/></g></svg>

<svg width="250" height="250" viewBox="0 0 250 250" fill="none" xmlns="http://www.w3.org/2000/svg">
<g clip-path="url(#clip0_37_34029)">
<path d="M111.61 249.717C55.4103 242.617 12.6104 203.017 1.56035 147.867C-0.539648 137.367 -0.539648 112.467 1.56035 101.967C11.9104 50.3672 50.3604 11.8672 102.01 1.56719C112.51 -0.532812 137.41 -0.532812 147.91 1.56719C199.56 11.8672 238.06 50.3672 248.36 101.967C250.46 112.467 250.46 137.367 248.36 147.867C238.06 199.267 199.36 238.117 148.36 248.167C141.51 249.517 117.96 250.517 111.61 249.717Z" fill="black"/>
<path d="M111.61 249.698C55.4599 242.648 12.6099 202.998 1.55986 147.848C-0.540137 137.348 -0.540137 112.448 1.55986 101.948C11.9099 50.3477 50.3599 11.8477 102.01 1.54766C112.51 -0.552344 137.41 -0.552344 147.91 1.54766C199.56 11.8477 238.06 50.3477 248.36 101.948C250.46 112.448 250.46 137.348 248.36 147.848C238.06 199.248 199.36 238.098 148.36 248.148C141.51 249.498 117.96 250.498 111.61 249.698ZM117.26 156.448L117.51 138.298H125.66H133.81L141.71 156.698L149.61 175.098H159.71C165.26 175.098 170.06 174.898 170.31 174.648C170.56 174.398 167.36 166.598 163.26 157.298C159.11 147.998 155.56 139.648 155.36 138.698C155.06 137.348 155.56 136.698 157.56 135.898C160.96 134.498 165.51 129.348 166.96 125.298C167.76 122.998 168.11 117.548 168.11 106.598C168.11 91.9977 168.01 90.8977 166.11 87.1477C165.01 84.9477 162.61 81.8477 160.76 80.2977C154.66 75.0977 152.71 74.7977 123.31 75.0477L97.0098 75.2477L96.7598 83.3476L96.5098 91.4477L87.1599 91.6977L77.8099 91.9477V100.698V109.448L87.6099 109.698L97.4099 109.948V114.498V119.048L87.6099 119.298L77.8099 119.548V128.298V137.048L87.6099 137.298L97.4099 137.548V156.348V175.148L107.21 175.248H117.01L117.26 156.448ZM117.46 106.548V93.9977H131.21C144.96 93.9977 144.96 93.9977 146.66 96.1977C148.16 98.0977 148.41 99.5476 148.41 106.548C148.41 113.498 148.16 114.998 146.66 116.898C144.91 119.098 144.91 119.098 131.21 119.098H117.46V106.548Z" fill="white"/>
</g>
<defs>
<clipPath id="clip0_37_34029">
<rect width="250" height="250" fill="white"/>
</clipPath>
</defs>
</svg>
